X: 25
T:Lilting Banshee, The
M:6/8
L:1/8
Q:120
S:THSP
R:jig
D:
Z:
K:ADor
"Am"EAA EAA|BAB G2A|"G"B2e edB|dBA GED|
"Am"EAA EAA|BAB G2A|"G"B2e edB|1 "Am"dBA A2G:|2 "Am"dBA A2d||:
"Am"e2a age|dBA G2A|"G"B2e edB|def gfg|
"Am"e2a age|dBA G2A|"G"B2e edB|1 "Am"dBA A2d:|2 "Am"dBA A2G|]
